X: 382
T: Huish the cat   #2
B: Francis O'Neill: "The Dance Music of Ireland" (1907) #382
R: single jig
%S: s:2 b:12(6+6)
Z: Frank Nordberg - http://www.musicaviva.com
F: http://www.musicaviva.com/abc/tunes/ireland/oneill-1001/0382/oneill-1001-0382-1.abc
M: 6/8
L: 1/8
K: C
%%slurgraces 1
%%graceslurs 1
"^A"|: G>AG c2e | d<dA c2e |[1,3 G>AG c2d | ecA A2c :|[2,4 g>fe f2d | ecA A2{BA}G :|
"^B"|: gfe  f2d | edc  f2d |[1,3 gfe  f2d | ecA A2G :|[2,4 G>AG f2d | ecA A2{BA}G :|
%Bar 2: two first notes org. 8th note and dotted 16th note!
